X:16
T:Somebody
S:John Moore's Book 1
Z:Transcribed by Paul Barber-Riley  March 2016
M:6/8
L:1/8
K:G
%%VWML: Moore1-4493-p11-0
F:http://www.vwml.org/record/Moore1/4493/p11
d| e2e (e>f)g | d2d d2c | B2B (B>^c)d | A2A Azd |
e2e (e>f)g | {e}d2d d2c | (B>c)d g2B | {B}A>GA G2B |
c3A3 | B2d B2B | c3A3 | B2d/B/ G2d |
e2e (e>f)g | {g}d2d d2c | (B>c)d {g}!fermata!b2B |{B}(~ A>G)AG2:|
